icons/4_Outdated/Bitfinex v1.svg

<svg width="1024" height="1024" viewBox="0 0 1024 1024" fill="none" xmlns="http://www.w3.org/2000/svg">
<g clip-path="url(#clip0_3_482)">
<path d="M512 1024C794.77 1024 1024 794.77 1024 512C1024 229.23 794.77 0 512 0C229.23 0 0 229.23 0 512C0 794.77 229.23 1024 512 1024Z" fill="#98DC9A"/>
<path d="M732.8 274.998C731.1 274.298 559.3 250.398 389.4 361.898C284 431.198 270 532.698 274.8 600.398C521.9 572.498 727.2 283.098 732.8 274.998ZM291.6 675.498C312.8 713.598 473.4 800.098 615.5 680.798C757.6 561.498 745.6 344.698 732.8 274.998C728.3 285.098 573.2 631.898 291.6 675.498Z" fill="white"/>
</g>
<defs>
<clipPath id="clip0_3_482">
<rect width="1024" height="1024" fill="white"/>
</clipPath>
</defs>
</svg>

<svg xmlns="http://www.w3.org/2000/svg" width="1024" height="1024" fill="none">
   <g clip-path="url(#a)">
      <path fill="#98DC9A" d="M512 1024c282.77 0 512-229.23 512-512S794.77 0 512 0 0 229.23 0 512s229.23 512 512 512Z"/>
      <path fill="#fff" d="M732.8 274.998c-1.7-.7-173.5-24.6-343.4 86.9-105.4 69.3-119.4 170.8-114.6 238.5 247.1-27.9 452.4-317.3 458-325.4Zm-441.2 400.5c21.2 38.1 181.8 124.6 323.9 5.3 142.1-119.3 130.1-336.1 117.3-405.8-4.5 10.1-159.6 356.9-441.2 400.5Z"/>
   </g>
   <defs>
      <clipPath id="a">
         <path fill="#fff" d="M0 0h1024v1024H0z"/>
      </clipPath>
   </defs>
</svg>
